X: 183
T: A vous non autre
N: Derived from Rue3001-A_vous_non_autre.krn
C: Pierre de la Rue
%%abc-version 2.0
%%abcx-abcm2ps-target-version 5.9.1 (29 Sep 2008)
%%abc-creator hum2abc beta
%%abcx-conversion-date 2019/02/17 08:01:17
%%abc-edited-by Jesse Rodin
%%abc-edited-by Chris Gage 06-11-2013
%%abcx-initial-encoding-date 2013/08/06/
%%humdrum-veritas 4244693614
%%humdrum-veritas-data 3260941629
%%linebreak <none>
%%barnumbers 0
L: 1/4
M: 2/1
Q: 1/2=120
V: 1 clef=treble-8
V: 2 clef=treble-8
V: 3 clef=bass
K: C
[V:1] z8 | 
[V:2] z8 | 
[V:3] A,,4A,,G,,A,,B,, | 
[V:1] A4AGAB | 
[V:2] z8 | 
[V:3] C,2D,3E,F,2- | 
[V:1] c2d3ef2- | 
[V:2] z8 | 
[V:3] F,E,D,C,_B,,4- | 
[V:1] fedc_B4 | 
[V:2] D4DCDE | 
[V:3] B,,2A,,2G,,4 | 
[V:1] A2d2d2d2 | 
[V:2] F2G3A_B2- | 
[V:3] F,,2_B,,2B,,2B,,2 | 
[V:1] d2d2c4 | 
[V:2] BAGFE4 | 
[V:3] G,,2G,,2A,,4 | 
[V:1] z2f2f2f2 | 
[V:2] D4z2A2 | 
[V:3] _B,,4A,,2F,,2- | 
[V:1] f2f2e2dc | 
[V:2] A2A2A2A2 | 
[V:3] F,,G,,A,,3B,,C,D, | 
[V:1] BAc2B4 | 
[V:2] G8 | 
[V:3] E,3E,,E,,4 | 
[V:1] A4z2A2 | 
[V:2] z2c2c2c2 | 
[V:3] z2F,,2F,,2F,,2 | 
[V:1] d3ef2e2- | 
[V:2] B2B2A2GF | 
[V:3] G,,2G,,2A,,3B,, | 
[V:1] edd4^c2 | 
[V:2] EDF2E4 | 
[V:3] C,B,,D,2A,,4 | 
[V:1] d4z2A2 | 
[V:2] D8 | 
[V:3] z2D,,2F,,2F,,2 | 
[V:1] c2c2B2B2 | 
[V:2] z4z2D2 | 
[V:3] F,,2A,,2G,,3F,, | 
[V:1] ABcde4 | 
[V:2] F2F2E2E2 | 
[V:3] D,,2D,4^C,2 | 
[V:1] z2A2ABcd | 
[V:2] DEFGA4 | 
[V:3] D,4A,,3B,, | 
[V:1] e2f2d4 | 
[V:2] z2D2DEFG | 
[V:3] C,2D,2F,4- | 
[V:1] c2f4e2 | 
[V:2] A2_B2G4 | 
[V:3] F,2_B,,2C,4 | 
[V:1] !fermata!f8 | 
[V:2] !fermata!F2_B2_B2_B2 | 
[V:3] !fermata!z2_B,,2B,,2B,,2 | 
[V:1] z4z2f2 | 
[V:2] A2F2G2D2 | 
[V:3] C,2A,,2_B,,A,,B,,C, | 
[V:1] f2f2e2c2 | 
[V:2] FEFGA2E2 | 
[V:3] D,4A,,4 | 
[V:1] d2A2cBcd | 
[V:2] FEFGA4- | 
[V:3] z2A,,2A,,3B,, | 
[V:1] e2A2cBcd | 
[V:2] A8 | 
[V:3] C,2D,2A,,3B,, | 
[V:1] e4z2d2 | 
[V:2] z2G2AGAB | 
[V:3] C,2E,2D,4 | 
[V:1] edefg2e2 | 
[V:2] c2A2G2A2 | 
[V:3] C,8 | 
[V:1] d4c4 | 
[V:2] B4A4 | 
[V:3] z2G,,2A,,G,,A,,B,, | 
[V:1] z2f2f2f2 | 
[V:2] z2A2A2A2 | 
[V:3] C,2F,,2F,,G,,A,,B,, | 
[V:1] e2g3f2e/d/ | 
[V:2] G2G2_B4 | 
[V:3] C,4_B,,4 | 
[V:1] c6A2 | 
[V:2] A8 | 
[V:3] z2F,,2F,,2A,,2 | 
[V:1] B2c2d4 | 
[V:2] z2F2F2G2 | 
[V:3] G,,2F,,2_B,,4 | 
[V:1] z2c4AB | 
[V:2] A4FGA2- | 
[V:3] A,,6F,,2 | 
[V:1] c4ABc2 | 
[V:2] A2FGA2FG | 
[V:3] F,,4z2F,2- | 
[V:1] ABcdefg2 | 
[V:2] A2F2E4 | 
[V:3] F,E,D,4C,2 | 
[V:1] f4f2e2- | 
[V:2] DEFGABc2 | 
[V:3] D,2D,,E,,F,,G,,A,,2 | 
[V:1] e2dcB2e2- | 
[V:2] c2B4A2- | 
[V:3] E,,F,,G,,A,,B,,2C,2 | 
[V:1] e2d4^c2 | 
[V:2] A2GFE4 | 
[V:3] D,2D,,2A,,4 | 
[V:1] d4z2AB | 
[V:2] D8 | 
[V:3] z2D,,3E,,F,,G,, | 
[V:1] cdefg4 | 
[V:2] z2D2E2E2 | 
[V:3] A,,D,,D,4C,2 | 
[V:1] f4f2e2- | 
[V:2] DEFGABc2- | 
[V:3] D,2D,,E,,F,,G,,A,,2 | 
[V:1] e2dcBAf2- | 
[V:2] c2B3BA2- | 
[V:3] E,,F,,G,,A,,B,,C,D,2 | 
[V:1] fed3^c^c2 | 
[V:2] A2GFE4 | 
[V:3] D,,E,,F,,G,,A,,4 | 
[V:1] d8 |]  
[V:2] D8 |]  
[V:3] D,,8 |]  



